X:87
T:87 Untitled Jig
C:Welch MS
I:abc2nwc
M:6/8
L:1/8
K:C
G|c2c cBc|g2f d2f|egc cBc|d2B G2G|c2c cBc|g2f d2f|egc dcB|c2c c2:|
G|G3GAB|c2c cBc|d2d dcd|e2c c2G|G3GAB|c2c e2g|dcB AGF|G2G G2|]


